actions/symbolic/view-sort-ascending-symbolic.svg

<?xml version="1.0" encoding="UTF-8" standalone="no"?>
<svg
   height="16"
   width="16"
   version="1.1"
   id="svg30957"
   xmlns="http://www.w3.org/2000/svg"
   xmlns:svg="http://www.w3.org/2000/svg">
  <defs
     id="defs30961" />
  <path
     id="path31125"
     style="font-variation-settings:normal;opacity:1;vector-effect:none;fill:#555761;fill-opacity:1;stroke:none;stroke-width:1;stroke-linecap:butt;stroke-linejoin:miter;stroke-miterlimit:4;stroke-dasharray:none;stroke-dashoffset:0;stroke-opacity:1;-inkscape-stroke:none;marker:none;stop-color:#000000;stop-opacity:1"
     d="M 3.3847656,12.999981 C 3.1736928,13.00207 3.0011497,12.832155 3,12.621075 v -1.242188 c 0,-0.21 0.1717658,-0.378906 0.3847656,-0.378906 H 4.6152344 C 4.8292342,10.999981 5,11.169887 5,11.378887 v 1.240235 c -0.00115,0.21108 -0.1736927,0.380995 -0.3847656,0.378906 z m 6.0664063,-0.998047 c -0.014996,3.8e-5 -0.029986,-6.14e-4 -0.044922,-0.002 -0.2289998,-0.044 -0.41025,-0.267 -0.40625,-0.5 V 7.9999809 H 7.5 c -0.3689996,-0.011 -0.6059998,-0.5235003 -0.375,-0.8125 l 2.5,-3 c 0.205126,-0.211835 0.544874,-0.211835 0.75,0 l 2.5,3 c 0.05555,0.070284 0.08704,0.1565545 0.08984,0.2460938 C 12.977852,7.7005713 12.777,7.9919809 12.5,7.9999809 H 11 v 3.5000001 c -0.01027,0.271776 -0.228224,0.489733 -0.5,0.5 h -1 c -0.016233,0.0015 -0.03253,0.0021 -0.048828,0.002 z M 3.3847656,8.9999809 C 3.1736928,9.0020703 3.0011497,8.8321548 3,8.6210747 V 7.3788871 C 3,7.1688874 3.1717658,6.9999809 3.3847656,6.9999809 H 4.6152344 C 4.8263072,6.9978915 4.9988503,7.167807 5,7.3788871 V 8.6210747 C 4.9988503,8.8321548 4.8263072,9.0020703 4.6152344,8.9999809 Z m 0,-4 C 3.1736928,5.0020699 3.0011498,4.8321549 3,4.6210749 v -1.242188 c 0,-0.21 0.1717658,-0.378906 0.3847656,-0.378906 H 4.6152344 C 4.8292342,2.9999809 5,3.1698869 5,3.3788869 v 1.240235 c -0.00115,0.21108 -0.1736928,0.380995 -0.3847656,0.378906 z" />
</svg>

<svg
        xmlns='http://www.w3.org/2000/svg'
        xmlns:svg='http://www.w3.org/2000/svg'
        id='svg30957'
        width='16'
        height='16'>
  <path
          id='path31125'
          opacity='1'
          fill='url(#gpa:foreground) #555761'
          fill-opacity='1'
          fill-rule='nonzero'
          stroke='none'
          stroke-opacity='1'
          stroke-width='1'
          stroke-linecap='butt'
          stroke-linejoin='miter'
          stroke-miterlimit='4'
          stroke-dasharray='none'
          stroke-dashoffset='0'
          marker-start='none'
          marker-mid='none'
          marker-end='none'
          d='M 3.38477 13 C 3.17369 13.0021, 3.00115 12.8322, 3 12.6211 L 3 11.3789 C 3 11.1689, 3.17177 11, 3.38477 11 L 4.61523 11 C 4.82923 11, 5 11.1699, 5 11.3789 L 5 12.6191 C 4.99885 12.8302, 4.82631 13.0001, 4.61523 12.998 Z M 9.45117 12.0019 C 9.43618 12.002, 9.42119 12.0013, 9.40625 11.9999 C 9.17725 11.9559, 8.996 11.7329, 9 11.4999 L 9 7.99998 L 7.5 7.99998 C 7.131 7.98898, 6.894 7.47648, 7.125 7.18748 L 9.625 4.18748 C 9.83013 3.97565, 10.1699 3.97565, 10.375 4.18748 L 12.875 7.18748 C 12.9305 7.25776, 12.962 7.34404, 12.9648 7.43357 C 12.9779 7.70057, 12.777 7.99198, 12.5 7.99998 L 11 7.99998 L 11 11.5 C 10.9897 11.7718, 10.7718 11.9897, 10.5 12 L 9.5 12 C 9.48377 12.0015, 9.46747 12.0021, 9.45117 12.002 Z M 3.38477 8.99998 C 3.17369 9.00207, 3.00115 8.83216, 3 8.62107 L 3 7.37889 C 3 7.16889, 3.17177 6.99998, 3.38477 6.99998 L 4.61523 6.99998 C 4.82631 6.99789, 4.99885 7.16781, 5 7.37889 L 5 8.62107 C 4.99885 8.83216, 4.82631 9.00207, 4.61523 8.99998 Z M 3.38477 4.99998 C 3.17369 5.00207, 3.00115 4.83215, 3 4.62107 L 3 3.37889 C 3 3.16889, 3.17177 2.99998, 3.38477 2.99998 L 4.61523 2.99998 C 4.82923 2.99998, 5 3.16989, 5 3.37889 L 5 4.61912 C 4.99885 4.8302, 4.82631 5.00012, 4.61523 4.99803 Z'
          class="foreground">
  </path>
</svg>
